public/characters/giko_basketball/front-sitting.svg

<svg width="160" height="182" xmlns="http://www.w3.org/2000/svg" xml:space="preserve" style="fill-rule:evenodd;clip-rule:evenodd;stroke-linecap:round;stroke-linejoin:round"><path d="m4.25-60 1.2.55 3.85-8.6 3.9 8.6 1.25-.55 3.15 3.05 1.1 1.1-1.1-1.1 1.15 1.1h-.05l-.35.4.1.1c1.4 1.367 2.167 2.883 2.3 4.55l.05.6c0 1.1-.267 2.133-.8 3.1l-.25.45-1.4 1.7.1.1-.3.3-3.25.9v4.7l-1.25.2-2 .5-3.15.9.65 1.6L12.5-37c1.133-.4 2.133-.6 3-.6 1.033 0 1.75.2 2.15.6.533.533.8 1.2.8 2 0 .733-.25 1.35-.75 1.85-.7.7-2.067 1.117-4.1 1.25l-1.25.05.35 1.5 1.5-.05-.05 2.75-1.5 1.25v5.75H8.1v1.55h6.6c.467 0 .85.133 1.15.4.367.367.55.917.55 1.65 0 .7-.183 1.233-.55 1.6-.3.3-.683.45-1.15.45H8.1v1.5H2.3c.8 0 1.45-.267 1.95-.8.6-.6.9-1.517.9-2.75 0-1.267-.3-2.2-.9-2.8-.533-.533-1.217-.8-2.05-.8h-6.6v1.55h6.55c.467 0 .85.133 1.15.4.367.367.55.917.55 1.65 0 .7-.183 1.233-.55 1.6-.3.3-.683.45-1.15.45H-4.4v1.5h-4.5l-3.25-3.25v-1.7l.45-.4c.5-.4.95-.917 1.35-1.55l-1.25-1-.7.95.4-10.95 1.75-12.8.4.35.75-.7-1-1.1c-1-1.267-1.5-2.65-1.5-4.15l.05-1c.233-1.533 1.05-2.95 2.45-4.25l-.75-.75.5-3.95.65.3 3.85-8.6 3.85 8.6L.35-60h3.9m2 9.2v-3.65h3.5v8.15H4.8c.8-1.133 1.283-2.633 1.45-4.5M4.9-51.9l-.05 1.1c-.133 1.8-.633 3.3-1.5 4.5H2.4v3.25h1.35V-45H11v1.95h1.35v-3.25h-1.2v-9.45H4.9v3.85m-12.1 8.3.75-1.55v-1.35h-1.5v1.45h.55l-.55 1.45h.75m2.15 0h.75l.75-1.55v-1.35h-1.5v1.45h.55l-.55 1.45" style="fill:#fff" transform="matrix(2 0 0 2 79.441 142)"/><path d="m108.341 22-2.5 1.1-7.8-17.2-7.7 17.2-2.4-1.1 10.1-22 10.3 22m-28.2 0-2.5 1.1-7.7-17.2-7.7 17.2-1.3-.6-1.1-.5 10.1-22 10.2 22m-20.2 8.4 1.5 1.5c-2.8 2.6-4.434 5.434-4.9 8.5l-.1 2c0 3 1 5.766 3 8.3l2 2.2-1.5 1.4-.8-.7-1.2-1.4c-2.4-2.934-3.6-6.2-3.6-9.8l.1-2c.466-3.734 2.3-7.066 5.5-10m-5.1 70.7 1.4-1.9 2.5 2c-.8 1.266-1.7 2.3-2.7 3.1l-.9.8c-.734.466-1.566.766-2.5.9h-.7c-1.266 0-3.034-.734-5.3-2.2l-3.8-1.3c-1.2 0-2.066.366-2.6 1.1l-1.2 1.9-2.7-1.5 2.4-3.3c1.066-1.066 2.366-1.6 3.9-1.6 1.466 0 2.966.534 4.5 1.6 2.2 1.134 3.9 1.7 5.1 1.7.866 0 1.734-.434 2.6-1.3m15.8 13.9v-3h13.1c.934 0 1.7-.3 2.3-.9.734-.734 1.1-1.8 1.1-3.2 0-1.466-.366-2.566-1.1-3.3-.6-.534-1.366-.8-2.3-.8h-13.1v-3.1h13.2c1.666 0 3.034.534 4.1 1.6 1.2 1.2 1.8 3.066 1.8 5.6 0 2.466-.6 4.3-1.8 5.5-1 1.066-2.3 1.6-3.9 1.6h-13.4m25 0v-3h13.2c.934 0 1.7-.3 2.3-.9.734-.734 1.1-1.8 1.1-3.2 0-1.466-.366-2.566-1.1-3.3-.6-.534-1.366-.8-2.3-.8h-13.2v-3.1h13.3c1.666 0 3.034.534 4.1 1.6 1.2 1.2 1.8 3.066 1.8 5.6 0 2.466-.6 4.3-1.8 5.5-1.066 1.066-2.434 1.6-4.1 1.6h-13.3m12.2-33.8-3 .1-.7-3 2.5-.1c4.066-.266 6.8-1.1 8.2-2.5 1-1 1.5-2.234 1.5-3.7 0-1.6-.534-2.934-1.6-4-.8-.8-2.234-1.2-4.3-1.2-1.734 0-3.734.4-6 1.2l-6.7 2.5-1.3-3.2 6.3-1.8 4-1 2.5-.4 1.5-.1 3.7.5c1.134.334 2.066.866 2.8 1.6 1.466 1.4 2.2 3.3 2.2 5.7 0 2.466-.666 4.366-2 5.7l-.8.7c-2.134 1.6-5.066 2.6-8.8 3m8.5-28.9-.2-.2 2.8-3.4.5-.9c1.066-1.934 1.6-4 1.6-6.2l-.1-1.2c-.266-3.334-1.8-6.366-4.6-9.1l-.2-.2.7-.8h.1l.6-.7c3.4 3.134 5.234 6.734 5.5 10.8l.1 1.2c0 2.534-.6 4.9-1.8 7.1-.934 1.666-2.2 3.266-3.8 4.8l-1.2-1.2m-27.1-14.1v-7.7h12.5v18.9h2.4v6.5h-2.7V52h-14.5v3.9h-2.7v-6.5h1.9c1.734-2.4 2.734-5.4 3-9l.1-2.2m2.7 2.2c-.334 3.734-1.3 6.734-2.9 9h9.9V33.1h-7v7.3m-22.6 14.4 1.1-2.9h-1.1V49h3v2.7l-1.5 3.1h-1.5m-4.3 0h-1.5l1.1-2.9h-1.1V49h3v2.7l-1.5 3.1"/><path d="M12.65-20.65v-5.75m6.05-29.45-1.1-1.1M4.25-60H.35" style="fill:none;fill-rule:nonzero;stroke:#000;stroke-width:1px" transform="matrix(2 0 0 2 79.441 142)"/><path d="m57.264 65.446 12.391-9.819 9.154.309c12.992 13.066 17.822 12.11 24.374.498l5.074.975 1.195 8.333c-.402-.566-1.951.163-2.184-.338-2.55-5.487-4.887-5.474-7.192 2.271-1.51 6.646-.594 16.109 4.522 16.906 1.536-.695 2.388-2.414 2.697-4.949.086 1.365 1.794-.528 1.896.766.331 4.24-.916 11.336-.848 14.95l-54.066-.733c-.689-12.748-.236-16.421 2.987-29.169Zm19.174-5.408c-4.887 0-8.854 5.376-8.854 11.997 0 6.622 3.967 11.997 8.854 11.997 4.886 0 8.853-5.375 8.853-11.997 0-6.621-3.967-11.997-8.853-11.997Z" style="fill:#c7c7c7;stroke:#000;stroke-width:2px;stroke-linecap:butt;stroke-miterlimit:1.5"/><path d="m91.702 66.897 3.334.161 1.189 2.903-.456 6.108-2.619 1.362 2.175 2.339-.143 7.072-2.087 1.682-2.984-.196-1.244-2.563.196-6.133 3.716-2.201-2.61-2.283-.163-6.413 1.696-1.838Z" style="fill:none;stroke:#ffdb69;stroke-width:2.5px;stroke-linecap:butt;stroke-miterlimit:1.5" transform="translate(-.909 3.635)"/><circle cx="1505.03" cy="474.652" r="16.705" style="fill:#b05d02;stroke:#000;stroke-width:1px;stroke-miterlimit:1.5" transform="matrix(1.00234 0 0 -1.00234 -1411.327 563.987)"/><path d="M1536.52 481.049c-1.65 4.247 8.5 13.966 19.94 10.966" style="fill:none;stroke:#000;stroke-width:.7px;stroke-miterlimit:1.5" transform="matrix(1.43518 0 0 -1.43518 -2120.94 788.353)"/><path d="M1549.1 476.555c5.86 10.098 1.61 28.004-8.86 21.659-4.16-1.215-8.17-10.38-5.9-11.999 1.35 8.703 12.47 15.682 14.48 3.246.88-5.397-13.81-9.565-6.69-12.952 2.38-.923 4.69-.74 6.97.046Z" style="fill:none;stroke:#000;stroke-width:.7px;stroke-miterlimit:1.5" transform="matrix(1.43518 0 0 -1.43518 -2120.94 788.353)"/><path d="M1552.73 496.807c.33-5.022.57-5.887 3.73-11.166" style="fill:none;stroke:#000;stroke-width:.7px;stroke-miterlimit:1.5" transform="matrix(1.43518 0 0 -1.43518 -2120.94 788.353)"/><path d="M70.252 68.803c4.524-2.168 9.048-3.314 13.572-3.526 3.84.403 5.331 1.406 6.318 3.14 1.162 2.041 1.304 5.054-.974 8.7-3.395 1.558-7.188 2.319-11.421 2.2" style="fill:#fff;stroke:#000;stroke-width:3px;stroke-linecap:butt;stroke-miterlimit:1.5"/><g id="gikopoipoi_eyes_open"><path d="M1.35 0h.2l.55.1.45.35c.3.3.45.633.45 1L2.55 2.6c-.3.267-.633.4-1 .4l-.8-.2-.25-.2-.45-.7v-.15L0 1.45v-.1c.033-.333.2-.633.5-.9l.25-.2C.917.117 1.1.033 1.3 0h.05m.45.85L1.55.8C1.317.767 1.133.833 1 1c-.133.1-.2.25-.2.45v.15l.15.45H1l.05.05.2.1.3.05.55-.2.15-.6-.05-.3L2.1 1 2.05.95 1.9.85h-.1" transform="matrix(2.0124 0 0 2 72.133 27)"/><path d="M1.35 0h.2l.55.1.45.35c.3.3.45.633.45 1L2.55 2.6c-.3.267-.633.4-1 .4l-.8-.2-.25-.2-.45-.7v-.15L0 1.45v-.1c.033-.333.2-.633.5-.9l.25-.2C.917.117 1.1.033 1.3 0h.05m.45.85L1.55.8C1.317.767 1.133.833 1 1c-.133.1-.2.25-.2.45v.15l.15.45H1l.05.05.2.1.3.05.55-.2.15-.6-.05-.3L2.1 1 2.05.95 1.9.85h-.1" transform="matrix(2.0124 0 0 2 105.974 27)"/></g><g id="gikopoipoi_eyes_closed" style="display:none"><path d="M107.46 30.1h6.3" style="fill:none;fill-rule:nonzero;stroke:#000;stroke-width:3px"/><path d="M-.05 1.55H3.1" style="fill:none;fill-rule:nonzero;stroke:#000;stroke-width:1.5px" transform="matrix(2 0 0 2 73.719 27)"/></g></svg>

<?xml version="1.0" encoding="UTF-8" standalone="no"?>
<!DOCTYPE svg PUBLIC "-//W3C//DTD SVG 1.1//EN" "http://www.w3.org/Graphics/SVG/1.1/DTD/svg11.dtd">
<svg width="160px" height="182px" version="1.1" xmlns="http://www.w3.org/2000/svg" xmlns:xlink="http://www.w3.org/1999/xlink" xml:space="preserve" xmlns:serif="http://www.serif.com/" style="fill-rule:evenodd;clip-rule:evenodd;stroke-linecap:round;stroke-linejoin:round;">
    <g id="c" transform="matrix(2,0,0,2,36.341,0)">
        <g transform="matrix(1,0,0,1,21.55,71)">
            <path d="M4.25,-60L5.45,-59.45L9.3,-68.05L13.2,-59.45L14.45,-60L17.6,-56.95L18.7,-55.85L17.6,-56.95L18.75,-55.85L18.7,-55.85L18.35,-55.45L18.45,-55.35C19.85,-53.983 20.617,-52.467 20.75,-50.8L20.8,-50.2C20.8,-49.1 20.533,-48.067 20,-47.1L19.75,-46.65L18.35,-44.95L18.45,-44.85L18.15,-44.55L14.9,-43.65L14.9,-38.95L13.65,-38.75L11.65,-38.25L8.5,-37.35L9.15,-35.75L12.5,-37C13.633,-37.4 14.633,-37.6 15.5,-37.6C16.533,-37.6 17.25,-37.4 17.65,-37C18.183,-36.467 18.45,-35.8 18.45,-35C18.45,-34.267 18.2,-33.65 17.7,-33.15C17,-32.45 15.633,-32.033 13.6,-31.9L12.35,-31.85L12.7,-30.35L14.2,-30.4L14.15,-27.65L12.65,-26.4L12.65,-20.65L8.1,-20.65L8.1,-19.1L14.7,-19.1C15.167,-19.1 15.55,-18.967 15.85,-18.7C16.217,-18.333 16.4,-17.783 16.4,-17.05C16.4,-16.35 16.217,-15.817 15.85,-15.45C15.55,-15.15 15.167,-15 14.7,-15L8.1,-15L8.1,-13.5L2.3,-13.5C3.1,-13.5 3.75,-13.767 4.25,-14.3C4.85,-14.9 5.15,-15.817 5.15,-17.05C5.15,-18.317 4.85,-19.25 4.25,-19.85C3.717,-20.383 3.033,-20.65 2.2,-20.65L-4.4,-20.65L-4.4,-19.1L2.15,-19.1C2.617,-19.1 3,-18.967 3.3,-18.7C3.667,-18.333 3.85,-17.783 3.85,-17.05C3.85,-16.35 3.667,-15.817 3.3,-15.45C3,-15.15 2.617,-15 2.15,-15L-4.4,-15L-4.4,-13.5L-8.9,-13.5L-12.15,-16.75L-12.15,-18.45L-11.7,-18.85C-11.2,-19.25 -10.75,-19.767 -10.35,-20.4L-11.6,-21.4L-12.3,-20.45L-11.9,-31.4L-10.15,-44.2L-9.75,-43.85L-9,-44.55L-10,-45.65C-11,-46.917 -11.5,-48.3 -11.5,-49.8L-11.45,-50.8C-11.217,-52.333 -10.4,-53.75 -9,-55.05L-9.75,-55.8L-9.25,-59.75L-8.6,-59.45L-4.75,-68.05L-0.9,-59.45L0.35,-60L4.25,-60M6.25,-50.8L6.25,-54.45L9.75,-54.45L9.75,-46.3L4.8,-46.3C5.6,-47.433 6.083,-48.933 6.25,-50.8M4.9,-51.9L4.85,-50.8C4.717,-49 4.217,-47.5 3.35,-46.3L2.4,-46.3L2.4,-43.05L3.75,-43.05L3.75,-45L11,-45L11,-43.05L12.35,-43.05L12.35,-46.3L11.15,-46.3L11.15,-55.75L4.9,-55.75L4.9,-51.9M-7.2,-43.6L-6.45,-45.15L-6.45,-46.5L-7.95,-46.5L-7.95,-45.05L-7.4,-45.05L-7.95,-43.6L-7.2,-43.6M-5.05,-43.6L-4.3,-43.6L-3.55,-45.15L-3.55,-46.5L-5.05,-46.5L-5.05,-45.05L-4.5,-45.05L-5.05,-43.6" style="fill:white;"/>
        </g>
        <g transform="matrix(1,0,0,1,21.55,71)">
            <path d="M14.45,-60L13.2,-59.45L9.3,-68.05L5.45,-59.45L4.25,-60L9.3,-71L14.45,-60M0.35,-60L-0.9,-59.45L-4.75,-68.05L-8.6,-59.45L-9.25,-59.75L-9.8,-60L-4.75,-71L0.35,-60M-9.75,-55.8L-9,-55.05C-10.4,-53.75 -11.217,-52.333 -11.45,-50.8L-11.5,-49.8C-11.5,-48.3 -11,-46.917 -10,-45.65L-9,-44.55L-9.75,-43.85L-10.15,-44.2L-10.75,-44.9C-11.95,-46.367 -12.55,-48 -12.55,-49.8L-12.5,-50.8C-12.267,-52.667 -11.35,-54.333 -9.75,-55.8M-12.3,-20.45L-11.6,-21.4L-10.35,-20.4C-10.75,-19.767 -11.2,-19.25 -11.7,-18.85L-12.15,-18.45C-12.517,-18.217 -12.933,-18.067 -13.4,-18L-13.75,-18C-14.383,-18 -15.267,-18.367 -16.4,-19.1L-18.3,-19.75C-18.9,-19.75 -19.333,-19.567 -19.6,-19.2L-20.2,-18.25L-21.55,-19L-20.35,-20.65C-19.817,-21.183 -19.167,-21.45 -18.4,-21.45C-17.667,-21.45 -16.917,-21.183 -16.15,-20.65C-15.05,-20.083 -14.2,-19.8 -13.6,-19.8C-13.167,-19.8 -12.733,-20.017 -12.3,-20.45M-4.4,-13.5L-4.4,-15L2.15,-15C2.617,-15 3,-15.15 3.3,-15.45C3.667,-15.817 3.85,-16.35 3.85,-17.05C3.85,-17.783 3.667,-18.333 3.3,-18.7C3,-18.967 2.617,-19.1 2.15,-19.1L-4.4,-19.1L-4.4,-20.65L2.2,-20.65C3.033,-20.65 3.717,-20.383 4.25,-19.85C4.85,-19.25 5.15,-18.317 5.15,-17.05C5.15,-15.817 4.85,-14.9 4.25,-14.3C3.75,-13.767 3.1,-13.5 2.3,-13.5L-4.4,-13.5M8.1,-13.5L8.1,-15L14.7,-15C15.167,-15 15.55,-15.15 15.85,-15.45C16.217,-15.817 16.4,-16.35 16.4,-17.05C16.4,-17.783 16.217,-18.333 15.85,-18.7C15.55,-18.967 15.167,-19.1 14.7,-19.1L8.1,-19.1L8.1,-20.65L14.75,-20.65C15.583,-20.65 16.267,-20.383 16.8,-19.85C17.4,-19.25 17.7,-18.317 17.7,-17.05C17.7,-15.817 17.4,-14.9 16.8,-14.3C16.267,-13.767 15.583,-13.5 14.75,-13.5L8.1,-13.5M14.2,-30.4L12.7,-30.35L12.35,-31.85L13.6,-31.9C15.633,-32.033 17,-32.45 17.7,-33.15C18.2,-33.65 18.45,-34.267 18.45,-35C18.45,-35.8 18.183,-36.467 17.65,-37C17.25,-37.4 16.533,-37.6 15.5,-37.6C14.633,-37.6 13.633,-37.4 12.5,-37L9.15,-35.75L8.5,-37.35L11.65,-38.25L13.65,-38.75L14.9,-38.95L15.65,-39L17.5,-38.75C18.067,-38.583 18.533,-38.317 18.9,-37.95C19.633,-37.25 20,-36.3 20,-35.1C20,-33.867 19.667,-32.917 19,-32.25L18.6,-31.9C17.533,-31.1 16.067,-30.6 14.2,-30.4M18.45,-44.85L18.35,-44.95L19.75,-46.65L20,-47.1C20.533,-48.067 20.8,-49.1 20.8,-50.2L20.75,-50.8C20.617,-52.467 19.85,-53.983 18.45,-55.35L18.35,-55.45L18.7,-55.85L18.75,-55.85L19.05,-56.2C20.75,-54.633 21.667,-52.833 21.8,-50.8L21.85,-50.2C21.85,-48.933 21.55,-47.75 20.95,-46.65C20.483,-45.817 19.85,-45.017 19.05,-44.25L18.45,-44.85M4.9,-51.9L4.9,-55.75L11.15,-55.75L11.15,-46.3L12.35,-46.3L12.35,-43.05L11,-43.05L11,-45L3.75,-45L3.75,-43.05L2.4,-43.05L2.4,-46.3L3.35,-46.3C4.217,-47.5 4.717,-49 4.85,-50.8L4.9,-51.9M6.25,-50.8C6.083,-48.933 5.6,-47.433 4.8,-46.3L9.75,-46.3L9.75,-54.45L6.25,-54.45L6.25,-50.8M-5.05,-43.6L-4.5,-45.05L-5.05,-45.05L-5.05,-46.5L-3.55,-46.5L-3.55,-45.15L-4.3,-43.6L-5.05,-43.6M-7.2,-43.6L-7.95,-43.6L-7.4,-45.05L-7.95,-45.05L-7.95,-46.5L-6.45,-46.5L-6.45,-45.15L-7.2,-43.6"/>
        </g>
        <g transform="matrix(1,0,0,1,21.55,71)">
            <path d="M12.65,-20.65L12.65,-26.4M18.7,-55.85L17.6,-56.95M4.25,-60L0.35,-60" style="fill:none;fill-rule:nonzero;stroke:black;stroke-width:1px;"/>
        </g>
    </g>
    <path d="M57.264,65.446L69.655,55.627L78.809,55.936C91.801,69.002 96.631,68.046 103.183,56.434L108.257,57.409L109.452,65.742C109.05,65.176 107.501,65.905 107.268,65.404C104.718,59.917 102.381,59.93 100.076,67.675C98.566,74.321 99.482,83.784 104.598,84.581C106.134,83.886 106.986,82.167 107.295,79.632C107.381,80.997 109.089,79.104 109.191,80.398C109.522,84.638 108.275,91.734 108.343,95.348L54.277,94.615C53.588,81.867 54.041,78.194 57.264,65.446ZM76.438,60.038C71.551,60.038 67.584,65.414 67.584,72.035C67.584,78.657 71.551,84.032 76.438,84.032C81.324,84.032 85.291,78.657 85.291,72.035C85.291,65.414 81.324,60.038 76.438,60.038Z" style="fill:rgb(199,199,199);stroke:black;stroke-width:2px;stroke-linecap:butt;stroke-miterlimit:1.5;"/>
    <g transform="matrix(1,0,0,1,-0.908795,3.63518)">
        <path d="M91.702,66.897L95.036,67.058L96.225,69.961L95.769,76.069L93.15,77.431L95.325,79.77L95.182,86.842L93.095,88.524L90.111,88.328L88.867,85.765L89.063,79.632L92.779,77.431L90.169,75.148L90.006,68.735L91.702,66.897Z" style="fill:none;stroke:rgb(255,219,105);stroke-width:2.5px;stroke-linecap:butt;stroke-miterlimit:1.5;"/>
    </g>
    <g transform="matrix(1.43518,0,0,-1.43518,-2120.94,788.353)">
        <g>
            <g transform="matrix(0.698409,0,0,0.698409,494.442,156.333)">
                <circle cx="1505.03" cy="474.652" r="16.705" style="fill:rgb(176,93,2);stroke:black;stroke-width:1px;stroke-miterlimit:1.5;"/>
            </g>
            <path d="M1536.52,481.049C1534.87,485.296 1545.02,495.015 1556.46,492.015" style="fill:none;stroke:black;stroke-width:0.7px;stroke-miterlimit:1.5;"/>
            <path d="M1549.1,476.555C1554.96,486.653 1550.71,504.559 1540.24,498.214C1536.08,496.999 1532.07,487.834 1534.34,486.215C1535.69,494.918 1546.81,501.897 1548.82,489.461C1549.7,484.064 1535.01,479.896 1542.13,476.509C1544.51,475.586 1546.82,475.769 1549.1,476.555Z" style="fill:none;stroke:black;stroke-width:0.7px;stroke-miterlimit:1.5;"/>
            <path d="M1552.73,496.807C1553.06,491.785 1553.3,490.92 1556.46,485.641" style="fill:none;stroke:black;stroke-width:0.7px;stroke-miterlimit:1.5;"/>
        </g>
    </g>
    <path d="M70.252,68.803C74.776,66.635 79.3,65.489 83.824,65.277C87.664,65.68 89.155,66.683 90.142,68.417C91.304,70.458 91.446,73.471 89.168,77.117C85.773,78.675 81.98,79.436 77.747,79.317" style="fill:white;stroke:black;stroke-width:3px;stroke-linecap:butt;stroke-miterlimit:1.5;"/>
    <g id="gikopoipoi_eyes_open" transform="matrix(2.0024,0,0,2,73.7429,27)">
        <g id="b" transform="matrix(1.005,0,0,1,-0.804,0)">
            <path d="M1.35,0L1.55,0L2.1,0.1L2.55,0.45C2.85,0.75 3,1.083 3,1.45L2.55,2.6C2.25,2.867 1.917,3 1.55,3L0.75,2.8L0.5,2.6L0.05,1.9L0.05,1.75L0,1.45L0,1.35C0.033,1.017 0.2,0.717 0.5,0.45L0.75,0.25C0.917,0.117 1.1,0.033 1.3,0L1.35,0M1.8,0.85L1.55,0.8C1.317,0.767 1.133,0.833 1,1C0.867,1.1 0.8,1.25 0.8,1.45L0.8,1.6L0.95,2.05L1,2.05L1.05,2.1L1.25,2.2L1.55,2.25L2.1,2.05L2.25,1.45L2.2,1.15L2.1,1L2.05,0.95L1.9,0.85L1.8,0.85"/>
        </g>
        <g id="b1" serif:id="b" transform="matrix(1.005,0,0,1,16.096,0)">
            <path d="M1.35,0L1.55,0L2.1,0.1L2.55,0.45C2.85,0.75 3,1.083 3,1.45L2.55,2.6C2.25,2.867 1.917,3 1.55,3L0.75,2.8L0.5,2.6L0.05,1.9L0.05,1.75L0,1.45L0,1.35C0.033,1.017 0.2,0.717 0.5,0.45L0.75,0.25C0.917,0.117 1.1,0.033 1.3,0L1.35,0M1.8,0.85L1.55,0.8C1.317,0.767 1.133,0.833 1,1C0.867,1.1 0.8,1.25 0.8,1.45L0.8,1.6L0.95,2.05L1,2.05L1.05,2.1L1.25,2.2L1.55,2.25L2.1,2.05L2.25,1.45L2.2,1.15L2.1,1L2.05,0.95L1.9,0.85L1.8,0.85"/>
        </g>
    </g>
    <g id="gikopoipoi_eyes_closed" style="display:none">
        <path d="M107.46,30.1L113.76,30.1" style="fill:none;fill-rule:nonzero;stroke:black;stroke-width:3px;"/>
        <g transform="matrix(2,0,0,2,73.719,27)">
            <path d="M-0.05,1.55L3.1,1.55" style="fill:none;fill-rule:nonzero;stroke:black;stroke-width:1.5px;"/>
        </g>
    </g>
</svg>
